icons/copyright-line.svg

<svg xmlns="http://www.w3.org/2000/svg" width="24" height="24" fill="none"><g clip-path="url(#a)"><g><path fill="#121212" d="M12 2C17.52 2 22 6.48 22 12C22 17.52 17.52 22 12 22C6.48 22 2 17.52 2 12C2 6.48 6.48 2 12 2ZM12 4C7.58 4 4 7.58 4 12C4 16.42 7.58 20 12 20C16.42 20 20 16.42 20 12C20 7.58 16.42 4 12 4ZM12 7C13.82 7 15.413 7.973 16.288 9.428L14.574 10.457C14.3043 10.0072 13.9213 9.63605 13.4634 9.38045C13.0055 9.12484 12.4885 8.99374 11.9641 9.00023C11.4397 9.00672 10.9262 9.15056 10.4747 9.41742C10.0232 9.68428 9.6496 10.0648 9.39107 10.5211C9.13254 10.9774 8.99815 11.4935 9.00128 12.0179C9.00442 12.5424 9.14498 13.0568 9.40895 13.51C9.67292 13.9632 10.0511 14.3392 10.5057 14.6007C10.9603 14.8621 11.4756 14.9998 12 15C12.5181 15.0003 13.0275 14.8664 13.4785 14.6112C13.9294 14.356 14.3065 13.9883 14.573 13.544L16.288 14.572C15.726 15.5106 14.8716 16.239 13.8559 16.6453C12.8402 17.0517 11.7192 17.1137 10.6649 16.8217C9.61058 16.5298 8.68114 15.9 8.01914 15.029C7.35713 14.1581 6.99912 13.094 7 12C7 9.24 9.24 7 12 7Z"/></g></g><defs><clipPath id="a"><rect width="24" height="24" fill="white"/></clipPath></defs></svg>

<svg width="24" height="24" fill="none" xmlns="http://www.w3.org/2000/svg"><g clip-path="url(#a)"><path d="M12 2c5.52 0 10 4.48 10 10s-4.48 10-10 10S2 17.52 2 12 6.48 2 12 2Zm0 2c-4.42 0-8 3.58-8 8s3.58 8 8 8 8-3.58 8-8-3.58-8-8-8Zm0 3c1.82 0 3.413.973 4.288 2.428l-1.714 1.029a3 3 0 1 0-.001 3.087l1.715 1.028A4.999 4.999 0 0 1 7 12c0-2.76 2.24-5 5-5Z" /></g><defs><clipPath id="a"><path fill="#fff" d="M0 0h24v24H0z"/></clipPath></defs></svg>
